optimized/24/outline/user-plus.svg

<svg xmlns="http://www.w3.org/2000/svg" fill="none" viewBox="0 0 24 24">
  <path stroke-linecap="round" stroke-linejoin="round" d="M19 7.5V10.5M19 10.5V13.5M19 10.5H22M19 10.5H16M13.75 6.375C13.75 8.23896 12.239 9.75 10.375 9.75C8.51104 9.75 7 8.23896 7 6.375C7 4.51104 8.51104 3 10.375 3C12.239 3 13.75 4.51104 13.75 6.375ZM4.00092 19.2343C4.00031 19.198 4 19.1615 4 19.125C4 15.6042 6.85418 12.75 10.375 12.75C13.8958 12.75 16.75 15.6042 16.75 19.125V19.1276C16.75 19.1632 16.7497 19.1988 16.7491 19.2343C14.8874 20.3552 12.7065 21 10.375 21C8.04353 21 5.86264 20.3552 4.00092 19.2343Z"/>
</svg>

<svg xmlns="http://www.w3.org/2000/svg" fill="none" viewBox="0 0 24 24" stroke-width="1.5" stroke="currentColor" aria-hidden="true">
  <path stroke-linecap="round" stroke-linejoin="round" d="M19 7.5v3m0 0v3m0-3h3m-3 0h-3m-2.25-4.125a3.375 3.375 0 11-6.75 0 3.375 3.375 0 016.75 0zM4 19.235v-.11a6.375 6.375 0 0112.75 0v.109A12.318 12.318 0 0110.374 21c-2.331 0-4.512-.645-6.374-1.766z"/>
</svg>
